X:157
T:Fruits of Pillage (Have Left a Hole in My Soul)
R:reel
C:2013 L.E. McCullough 
M:4/4
L:1/8
K:Eminor
||: b2ab gafg | eBAB-B3z | ~c3g-gfef | eBAB-B3z | 
b2ab gafg | eBAB-B3z | ~c3f gfed |1 Bdfe-e3z :|2 Bdfe-edef ||:
~g3b-b2ag| ~f3a-a2gf | e~B3 eBef | gfed eBef | 
~g3b-b2ag|[1 ~f3a-a2gf | eBfB gBeg | fAgf e3f:|
[|2 fbag ~f3g | eBfB gBeg | fAfd e3z  ||


